packages/ui-icons/src/Basic/24/Football_24.svg

<?xml version="1.0" encoding="utf-8"?>
<svg version="1.1" id="Слой_1" xmlns="http://www.w3.org/2000/svg" xmlns:xlink="http://www.w3.org/1999/xlink" x="0px" y="0px"
	 viewBox="0 0 32 32" style="enable-background:new 0 0 32 32;" xml:space="preserve">
<path id="Shape" d="M6.10084,17.42559c0.18661,1.30742,0.6261,2.53331,1.26735,3.62655l5.11839-0.00245l1.54288,4.75621
	c0.63708,0.12732,1.29601,0.1941,1.97054,0.1941s1.33346-0.06679,1.97054-0.1941l1.54288-4.75621l5.11839,0.00245
	c0.64125-1.09324,1.08074-2.31913,1.26735-3.62655l-4.21433-3.05881l1.67262-5.13943
	c-0.83213-0.90351-1.82855-1.65337-2.94188-2.20216L16,10.23651l-4.41557-3.21132C10.4711,7.57398,9.47468,8.32383,8.64255,9.22735
	l1.67262,5.13943L6.10084,17.42559L6.10084,17.42559z M6.05027,14.99102l1.91294-1.38844l-0.7655-2.35213
	C6.58509,12.38342,6.18483,13.64806,6.05027,14.99102L6.05027,14.99102z M8.90931,23.05141
	c0.7977,0.80211,1.73059,1.46965,2.76162,1.96555l-0.63794-1.96656L8.90931,23.05141L8.90931,23.05141z M12.57684,27.50468
	l-0.08949,0.02903l-0.02017-0.06219C7.56399,25.9633,4,21.39786,4,16.00001c0-6.62742,5.37258-12,12-12s12,5.37258,12,12
	c0,5.39785-3.56399,9.96329-8.46717,11.47152l-0.02017,0.06219l-0.08949-0.02903C18.33839,27.82697,17.1894,28.00001,16,28.00001
	S13.66161,27.82697,12.57684,27.50468L12.57684,27.50468z M23.09069,23.05141l-2.12368-0.00101l-0.63794,1.96656
	C21.3601,24.52105,22.29299,23.85352,23.09069,23.05141L23.09069,23.05141z M25.94973,14.99102
	c-0.13456-1.34296-0.53482-2.6076-1.14744-3.74057l-0.7655,2.35213L25.94973,14.99102L25.94973,14.99102z M13.88369,6.22438
	L16,7.76351l2.11631-1.53913C17.43414,6.0774,16.72611,6.00001,16,6.00001S14.56585,6.0774,13.88369,6.22438L13.88369,6.22438z
	 M16,11.76394l4.02874,2.92705l-1.53884,4.73607h-4.9798L11.97126,14.691L16,11.76394z M14.3224,15.45493l0.64079,1.97214h2.07363
	l0.64079-1.97214L16,14.23608L14.3224,15.45493z"/>
</svg>

<svg xmlns="http://www.w3.org/2000/svg" viewBox="0 0 32 32" style="enable-background:new 0 0 32 32" xml:space="preserve"><path d="M6.1 17.426a9.934 9.934 0 0 0 1.268 3.626l5.119-.002 1.542 4.756a10.048 10.048 0 0 0 3.942 0l1.542-4.756 5.119.002a9.934 9.934 0 0 0 1.267-3.626l-4.214-3.06 1.672-5.139a10.033 10.033 0 0 0-2.941-2.202L16 10.237l-4.416-3.212a10.033 10.033 0 0 0-2.941 2.202l1.672 5.14-4.214 3.059zm-.05-2.435 1.913-1.388-.765-2.353a9.935 9.935 0 0 0-1.148 3.741zm2.86 8.06c.797.803 1.73 1.47 2.76 1.966l-.637-1.967-2.124.001zm3.667 4.454-.09.029-.02-.062C7.564 25.963 4 21.398 4 16 4 9.373 9.373 4 16 4s12 5.373 12 12c0 5.398-3.564 9.963-8.467 11.472l-.02.062-.09-.03C18.338 27.828 17.19 28 16 28s-2.338-.173-3.423-.495zM23.09 23.05h-2.124l-.638 1.966a10.026 10.026 0 0 0 2.762-1.966zm2.859-8.06a9.935 9.935 0 0 0-1.148-3.74l-.765 2.352 1.913 1.388zM13.884 6.224 16 7.764l2.116-1.54a10.039 10.039 0 0 0-4.232 0zM16 11.764l4.029 2.927-1.54 4.736H13.51l-1.539-4.736L16 11.764zm-1.678 3.69.641 1.973h2.074l.64-1.972L16 14.236l-1.678 1.219z"/></svg>
